X: 5
T: The Green Mountain
R: reel
M: 4/4
L: 1/8
K: Dmaj
dB|A~F3 EGFE|D~F3 ABde|f~d3 efdB|Adfd efdB|A~F3 EGFE|DEFG ABde|f~d3 efdB|1 AFEF D3 B:|AFEF D3 e||f~a3 bfaf|defd e2 de|f~B3 ABde|fgfe dBBe|f~a3 bfaf|defd efde|f~d3 efdB|1 AFEF D3 e:|AFEF D2 dB||


Tune 166	Setting 12799

